X:0673
M:C
L:1/8
Q:1/2=104
K:G Lydian
     dBGB  dBGB|dBde Tfdfg   |aefd e>dBa| A/A/A (Bd) e2g2||
     d>gBg dgBg|dgBg Tf2df   |eaca Aaca |Te>def      g2fe |
     dgBg  dgBg|dgBg Tf2de/f/|aefd e>dBa| A/A/A  Bd  e2g2||
     dBGB  dBGB|dBde Tf2df   |ecAc ecAc | e>def      g2fe |
     dBGB  dBGB|dBde Tfdfg   |aefd e>dBa| A/A/A (Bd) e2g2||

